Papirus/64x64/apps/com.github.finefindus.eyedropper.svg

<?xml version="1.0" encoding="UTF-8" standalone="no"?>
<svg
   id="_图层_1"
   version="1.1"
   viewBox="0 0 64 64" width="64" height="64"
   sodipodi:docname="com.github.finefindus.eyedropper.svg"
   xml:space="preserve"
   inkscape:version="1.4 (e7c3feb100, 2024-10-09)"
   xmlns:inkscape="http://www.inkscape.org/namespaces/inkscape"
   xmlns:sodipodi="http://sodipodi.sourceforge.net/DTD/sodipodi-0.dtd"
   xmlns="http://www.w3.org/2000/svg"
   xmlns:svg="http://www.w3.org/2000/svg"><sodipodi:namedview
     id="namedview26"
     pagecolor="#505050"
     bordercolor="#eeeeee"
     borderopacity="1"
     inkscape:showpageshadow="0"
     inkscape:pageopacity="0"
     inkscape:pagecheckerboard="0"
     inkscape:deskcolor="#505050"
     inkscape:zoom="10.6875"
     inkscape:cx="32"
     inkscape:cy="33.497076"
     inkscape:window-width="1920"
     inkscape:window-height="939"
     inkscape:window-x="0"
     inkscape:window-y="34"
     inkscape:window-maximized="1"
     inkscape:current-layer="_图层_1"
     showguides="true"><sodipodi:guide
       position="18.314013,53.077474"
       orientation="0,-1"
       id="guide30"
       inkscape:locked="false" /><sodipodi:guide
       position="29.454684,54.142758"
       orientation="0,-1"
       id="guide31"
       inkscape:locked="false" /></sodipodi:namedview><!-- Generator: Adobe Illustrator 29.0.1, SVG Export Plug-In . SVG Version: 2.1.0 Build 192)  --><defs
     id="defs6"><style
       id="style1">
      .st0 {
        fill-opacity: .5;
      }

      .st0, .st1, .st2, .st3, .st4, .st5, .st6, .st7 {
        fill: #fff;
      }

      .st8 {
        fill: #133c9a;
      }

      .st2, .st9 {
        display: none;
      }

      .st3 {
        fill-opacity: .2;
      }

      .st4 {
        fill-opacity: .9;
      }

      .st10 {
        fill: #3370ff;
      }

      .st11 {
        fill: url(#_未命名的渐变_3);
      }

      .st12 {
        fill: url(#_未命名的渐变);
      }

      .st5 {
        fill-opacity: .3;
      }

      .st6 {
        fill-opacity: 0;
      }

      .st7 {
        fill-opacity: .7;
      }

      .st13 {
        fill: #00d6b9;
      }

      .st14 {
        fill: url(#_未命名的渐变_2);
      }
    </style><radialGradient
       id="_未命名的渐变"
       data-name="未命名的渐变"
       cx="123.9"
       cy="-40.2"
       fx="123.9"
       fy="-40.2"
       r="59.4"
       gradientTransform="translate(-26.8 25.5) scale(.6 -.7)"
       gradientUnits="userSpaceOnUse"><stop
         offset="0"
         stop-color="#db202e"
         id="stop1" /><stop
         offset="1"
         stop-color="#e01b24"
         id="stop2" /></radialGradient><radialGradient
       id="_未命名的渐变_2"
       data-name="未命名的渐变 2"
       cx="67.6"
       cy="26.8"
       fx="67.6"
       fy="26.8"
       r="105.2"
       gradientTransform="translate(-26.6 25.3) scale(.6 -.7)"
       gradientUnits="userSpaceOnUse"><stop
         offset="0"
         stop-color="#ffb648"
         id="stop3" /><stop
         offset="1"
         stop-color="#ff7800"
         stop-opacity="0"
         id="stop4" /></radialGradient><radialGradient
       id="_未命名的渐变_3"
       data-name="未命名的渐变 3"
       cx="61.7"
       cy="18.6"
       fx="61.7"
       fy="18.6"
       r="68"
       gradientTransform="translate(-26.8 25.8) scale(.6 -.7)"
       gradientUnits="userSpaceOnUse"><stop
         offset="0"
         stop-color="#c64600"
         id="stop5" /><stop
         offset="1"
         stop-color="#a51d2d"
         id="stop6" /></radialGradient></defs><path
     class="st1"
     d="M47.5,64.1H13.8c-7.6,0-13.8-6.3-13.8-13.8V13.7C0,6.2,6.2,0,13.7,0h36.6c7.5,0,13.7,6.2,13.7,13.7v36.6c0,7.5-6.2,13.7-13.7,13.7h-2.9.1Z"
     id="path6"
     style="fill:#e6e6e6;fill-opacity:1" /><g
     id="g34"
     transform="translate(-2.3591521e-7,0.49978002)"><path
       style="fill:#1095e8"
       d="m 7.0808629,54.057399 c 1.0643699,2.046398 1.1049948,1.467806 2.1693647,3.514204 5.4437254,-6.29755 9.0654254,-3.5609 13.9952474,-8.017094 4.212792,-4.029862 14.669619,-13.780709 17.982571,-18.515035 4.178263,-2.432127 -7.767464,4.612517 -6.887935,-1.97128 0.0325,-4.281602 -5.09029,-2.387467 -6.869658,-0.328886 -6.152627,5.363674 -11.16979,10.836978 -16.849138,16.064632 -2.6852995,2.470701 4.82826,2.57018 -3.5404521,9.253459 z m 0,0"
       id="path1-3" /><path
       style="opacity:0.2"
       d="m 51.613331,7.0042475 c -1.496314,-0.054527 -3.013676,0.3773496 -4.218716,1.2929586 -2.164437,1.9540799 -4.175305,4.0721549 -6.253858,6.1171389 -0.179079,0.114863 -0.570308,0.558589 -0.570308,0.558589 0,0 -0.08642,-0.06249 -0.230466,-0.218748 -0.705952,-0.653637 -1.350105,-1.559306 -2.355449,-1.691393 -1.440475,-0.07086 -2.503754,1.688891 -1.714831,2.917946 3.661605,3.792725 7.410745,7.500921 11.144442,11.222565 0.816053,0.678917 1.47256,1.899569 2.687478,1.78905 0.925071,-0.0162 1.660217,-0.808139 1.843736,-1.671862 0.05136,-1.289716 -1.157037,-2.024716 -1.929673,-2.88279 1.284066,-1.289071 2.56918,-2.576381 3.851534,-3.867157 1.176044,-1.312147 2.675776,-2.401713 3.464816,-4.015592 1.319697,-2.614268 0.632459,-6.057275 -1.624987,-7.9335307 C 54.5828,7.5972686 53.109644,7.0587749 51.613331,7.0042475 Z M 36.203296,19.226806 23.094026,32.332172 C 15.854684,39.571712 9.9399135,45.527421 9.8871,45.62894 c -0.058908,0.115719 -0.099061,0.349355 -0.1132811,0.613277 -0.01828,0.361369 0.00546,0.529536 0.1679666,1.140615 0.1035935,0.393849 0.2490605,0.940609 0.3242165,1.21874 0.07516,0.278134 0.153747,0.711067 0.167966,0.964837 0.02031,0.304523 0.0056,0.554305 -0.03906,0.718744 -0.065,0.23144 -0.236243,0.420139 -1.9648283,2.164045 -1.7895227,1.806839 -1.9023278,1.93364 -2.105452,2.343731 -0.1360929,0.272042 -0.2445265,0.574656 -0.2851542,0.820308 -0.03656,0.219252 -0.04953,0.541335 -0.03125,0.738274 0.01828,0.192858 0.077969,0.480242 0.1328109,0.640621 0.056876,0.158358 0.1556228,0.39742 0.2226545,0.527339 0.067031,0.129939 0.2889035,0.404325 0.4960898,0.60937 0.2071862,0.205044 0.4999958,0.438328 0.6523386,0.519527 0.1503108,0.0812 0.4507771,0.191279 0.6640572,0.246093 0.2132799,0.05688 0.5192134,0.105459 0.6796822,0.105459 0.1604667,0.002 0.4553079,-0.03364 0.6523384,-0.07422 0.1970304,-0.04264 0.5309329,-0.163798 0.7421819,-0.273436 0.339217,-0.176618 0.606865,-0.420884 2.296857,-2.093733 1.744836,-1.725632 1.932484,-1.894077 2.164045,-1.957016 0.166563,-0.04478 0.416089,-0.06116 0.718744,-0.04296 0.255937,0.0162 0.690461,0.09082 0.968743,0.167959 0.276247,0.07512 0.82468,0.224564 1.21874,0.328123 0.609373,0.160499 0.782962,0.186159 1.144522,0.167959 0.251875,-0.0142 0.497643,-0.05846 0.60937,-0.113279 0.107657,-0.05278 5.653524,-5.56526 13.288957,-13.210833 l 13.105364,-13.12099 z m 0.02734,2.730448 3.414037,3.410129 3.410128,3.410129 -11.800688,11.792874 -11.804593,11.792876 -0.312498,0.08984 c -0.22953,0.06486 -0.415777,0.07904 -0.675775,0.05468 -0.197031,-0.0182 -0.877802,-0.165558 -1.515614,-0.332027 -1.0339,-0.267986 -1.221082,-0.300486 -1.718736,-0.304686 -0.477341,-0.004 -0.586712,0.0098 -0.769525,0.109379 -0.115781,0.06294 -1.279204,1.186007 -2.601542,2.511701 -1.314212,1.317573 -2.4484194,2.426264 -2.5195109,2.464824 -0.073125,0.03856 -0.2187468,0.08146 -0.32031,0.09766 -0.1035932,0.0142 -0.2657791,0.0068 -0.3632783,-0.0156 -0.099531,-0.02438 -0.2431227,-0.08768 -0.3203101,-0.144539 -0.077187,-0.05684 -0.1929685,-0.178198 -0.2539042,-0.269529 -0.062969,-0.09136 -0.1301569,-0.25004 -0.1484368,-0.35156 -0.020316,-0.103539 -0.00516,-0.290219 0.027344,-0.414058 0.052812,-0.200985 0.3481156,-0.516932 2.5195113,-2.695293 1.35281,-1.356157 2.499826,-2.54878 2.554671,-2.652339 0.07928,-0.150233 0.09779,-0.291484 0.09375,-0.74218 -0.0041,-0.414151 -0.03907,-0.686914 -0.140623,-1.062491 -0.07516,-0.276102 -0.215151,-0.7894 -0.308592,-1.140617 -0.134065,-0.50145 -0.17174,-0.749746 -0.17578,-1.167959 -0.0041,-0.452725 0.01188,-0.561504 0.109374,-0.742182 0.06906,-0.125859 4.942593,-5.036132 11.867093,-11.956937 z"
       id="path2" /><path
       style="fill:#3f3f3f"
       d="m 50.103313,27.993242 c -1.214918,0.110519 -1.874409,-1.109947 -2.690462,-1.788862 -3.733696,-3.721646 -7.482987,-7.429436 -11.144592,-11.22216 -0.788923,-1.229055 0.27711,-2.992095 1.717583,-2.921235 1.005346,0.132087 1.646815,1.040625 2.352767,1.694262 0.144039,0.156263 0.232388,0.21824 0.232388,0.21824 0,0 0.392201,-0.442776 0.571282,-0.55764 2.078553,-2.044984 4.087607,-4.1652347 6.252044,-6.1193143 2.410081,-1.8312177 6.066044,-1.7216531 8.31454,0.3266542 2.257446,1.8762555 2.943158,5.3190321 1.623461,7.9333001 -0.78904,1.61388 -2.288456,2.703185 -3.4645,4.015333 -1.282354,1.290775 -2.568482,2.577785 -3.852546,3.866856 0.772636,0.858074 1.980172,1.590744 1.928821,2.880459 -0.183519,0.863724 -0.915715,1.657867 -1.840786,1.674107 z"
       id="path3" /><path
       style="fill:#e4e4e4"
       d="m 8.8561671,57.99996 c -0.1604687,0 -0.4671856,-0.04666 -0.6804655,-0.10354 C 7.9624215,57.841601 7.663829,57.729942 7.5135174,57.648742 7.3611746,57.567543 7.066644,57.334067 6.8594578,57.129022 6.6522715,56.923978 6.4288348,56.649908 6.361804,56.519977 6.2947725,56.390058 6.1972733,56.15252 6.1403983,55.994166 6.0855568,55.833787 6.0266492,55.543469 6.0083674,55.350607 c -0.01828,-0.196939 -0.00406,-0.517694 0.0325,-0.736947 0.040628,-0.245652 0.1462489,-0.548145 0.2823426,-0.820187 0.2031242,-0.410091 0.3189047,-0.537988 2.1084274,-2.344827 1.7285856,-1.743906 1.8992096,-1.932711 1.9642096,-2.164151 0.04469,-0.164439 0.05891,-0.412121 0.03859,-0.716644 -0.01422,-0.25377 -0.0914,-0.688223 -0.16656,-0.966357 -0.07516,-0.278132 -0.223436,-0.826273 -0.3270296,-1.220122 -0.1624987,-0.611079 -0.1868745,-0.77958 -0.1685926,-1.140949 0.01422,-0.263922 0.056874,-0.495358 0.115781,-0.611077 0.052814,-0.101519 5.9657512,-6.05596 13.2050932,-13.2955 L 36.204788,18.225121 45.763806,27.77904 32.660274,40.899946 c -7.635433,7.645573 -13.180719,13.157451 -13.288376,13.210234 -0.111727,0.05482 -0.359529,0.0995 -0.611403,0.11368 -0.361561,0.0182 -0.532184,-0.008 -1.141558,-0.168499 -0.39406,-0.103559 -0.944526,-0.251736 -1.220773,-0.326859 -0.278282,-0.07714 -0.712967,-0.152259 -0.968903,-0.168499 -0.302655,-0.0182 -0.550466,-0.0042 -0.717028,0.04058 -0.231561,0.06294 -0.420466,0.23347 -2.165302,1.959102 -1.689992,1.672849 -1.956084,1.914441 -2.295301,2.091061 -0.211249,0.109639 -0.5464038,0.23347 -0.743434,0.276104 -0.1970305,0.04058 -0.4915607,0.07512 -0.6520283,0.07308 z m 0.1604668,-1.944887 c 0.1015632,-0.0162 0.2457806,-0.05888 0.3189052,-0.09744 0.071091,-0.03856 1.2065569,-1.147037 2.5207689,-2.464611 1.322338,-1.325693 2.486238,-2.44837 2.602019,-2.511304 0.182813,-0.09948 0.292499,-0.115719 0.769841,-0.111659 0.497654,0.0042 0.682496,0.03654 1.716397,0.304526 0.637811,0.166479 1.320308,0.316705 1.517337,0.334975 0.259998,0.02436 0.444842,0.008 0.674373,-0.05686 L 19.451117,51.363382 31.252625,39.5702 43.054131,27.779048 39.643681,24.368383 36.231196,20.957718 24.478437,32.700147 C 17.553938,39.620952 12.678961,44.529875 12.6099,44.655744 c -0.0975,0.180678 -0.11375,0.290313 -0.10969,0.743038 0.004,0.418212 0.04265,0.66589 0.176719,1.16734 0.09344,0.351218 0.231563,0.864848 0.306718,1.140949 0.101557,0.375577 0.138131,0.647621 0.142191,1.061772 0.004,0.450696 -0.01416,0.592805 -0.09344,0.743038 -0.05485,0.103559 -1.204526,1.297272 -2.557332,2.653413 -2.1713959,2.178361 -2.4659261,2.495064 -2.5187383,2.696049 -0.0325,0.123839 -0.044688,0.308585 -0.024372,0.412122 0.01828,0.101519 0.085311,0.259862 0.1482808,0.351217 0.060936,0.09134 0.1746866,0.213169 0.2518738,0.270012 0.077187,0.05686 0.2193739,0.121799 0.3189051,0.146179 0.097499,0.02234 0.2620299,0.02842 0.3656227,0.0142 z m 0,0"
       id="path4" /><path
       style="opacity:0.1;fill:#ffffff"
       d="m 51.611328,6.0058594 c -1.496313,-0.054527 -3.011756,0.3754068 -4.216797,1.2910156 -2.164437,1.9540796 -4.1734,4.074157 -6.251953,6.119141 -0.179081,0.114864 -0.572266,0.55664 -0.572266,0.55664 10e-7,0 -0.08838,-0.06053 -0.232421,-0.216797 -0.705952,-0.653637 -1.346217,-1.563225 -2.351563,-1.695312 -1.278337,-0.06288 -2.258302,1.31751 -1.912109,2.488281 0.230005,-0.832443 0.993405,-1.533474 1.912109,-1.488281 1.005346,0.132087 1.645611,1.041675 2.351563,1.695312 0.144039,0.156263 0.232422,0.216797 0.232421,0.216797 0,0 0.393185,-0.441776 0.572266,-0.55664 2.078553,-2.044984 4.087516,-4.165062 6.251953,-6.119141 2.410081,-1.8312177 6.065957,-1.7221354 8.314453,0.3261719 1.356089,1.1271006 2.13986,2.8200821 2.267578,4.5585941 C 58.130433,11.111654 57.324927,8.9661228 55.708984,7.6230469 54.584736,6.5988932 53.107641,6.0603867 51.611328,6.0058594 Z M 50.513672,23.939453 c -0.165804,0.166338 -0.332299,0.331653 -0.498047,0.498047 0.625838,0.695043 1.535672,1.309953 1.832031,2.203125 0.03982,-0.105176 0.07259,-0.213466 0.0957,-0.322266 0.04119,-1.034419 -0.72513,-1.709058 -1.429687,-2.378906 z"
       id="path5-1" /></g></svg>

<svg xmlns="http://www.w3.org/2000/svg" width="64" height="64" version="1.1">
 <path style="fill:#1095e8" d="m 7.0808629,54.057399 c 1.0643699,2.046398 1.1049948,1.467806 2.1693647,3.514204 5.4437254,-6.29755 9.0654254,-3.5609 13.9952474,-8.017094 4.212792,-4.029862 14.669619,-13.780709 17.982571,-18.515035 4.178263,-2.432127 -7.767464,4.612517 -6.887935,-1.97128 0.0325,-4.281602 -5.09029,-2.387467 -6.869658,-0.328886 -6.152627,5.363674 -11.16979,10.836978 -16.849138,16.064632 -2.6852995,2.470701 4.82826,2.57018 -3.5404521,9.253459 z m 0,0"/>
 <path style="opacity:0.2" d="m 51.613331,7.0042475 c -1.496314,-0.054527 -3.013676,0.3773496 -4.218716,1.2929586 -2.164437,1.9540799 -4.175305,4.0721549 -6.253858,6.1171389 -0.179079,0.114863 -0.570308,0.558589 -0.570308,0.558589 0,0 -0.08642,-0.06249 -0.230466,-0.218748 -0.705952,-0.653637 -1.350105,-1.559306 -2.355449,-1.691393 -1.440475,-0.07086 -2.503754,1.688891 -1.714831,2.917946 3.661605,3.792725 7.410745,7.500921 11.144442,11.222565 0.816053,0.678917 1.47256,1.899569 2.687478,1.78905 0.925071,-0.0162 1.660217,-0.808139 1.843736,-1.671862 0.05136,-1.289716 -1.157037,-2.024716 -1.929673,-2.88279 1.284066,-1.289071 2.56918,-2.576381 3.851534,-3.867157 1.176044,-1.312147 2.675776,-2.401713 3.464816,-4.015592 1.319697,-2.614268 0.632459,-6.057275 -1.624987,-7.9335307 C 54.5828,7.5972686 53.109644,7.0587749 51.613331,7.0042475 Z M 36.203296,19.226806 23.094026,32.332172 C 15.854684,39.571712 9.9399135,45.527421 9.8871,45.62894 c -0.058908,0.115719 -0.099061,0.349355 -0.1132811,0.613277 -0.01828,0.361369 0.00546,0.529536 0.1679666,1.140615 0.1035935,0.393849 0.2490605,0.940609 0.3242165,1.21874 0.07516,0.278134 0.153747,0.711067 0.167966,0.964837 0.02031,0.304523 0.0056,0.554305 -0.03906,0.718744 -0.065,0.23144 -0.236243,0.420139 -1.9648283,2.164045 -1.7895227,1.806839 -1.9023278,1.93364 -2.105452,2.343731 -0.1360929,0.272042 -0.2445265,0.574656 -0.2851542,0.820308 -0.03656,0.219252 -0.04953,0.541335 -0.03125,0.738274 0.01828,0.192858 0.077969,0.480242 0.1328109,0.640621 0.056876,0.158358 0.1556228,0.39742 0.2226545,0.527339 0.067031,0.129939 0.2889035,0.404325 0.4960898,0.60937 0.2071862,0.205044 0.4999958,0.438328 0.6523386,0.519527 0.1503108,0.0812 0.4507771,0.191279 0.6640572,0.246093 0.2132799,0.05688 0.5192134,0.105459 0.6796822,0.105459 0.1604667,0.002 0.4553079,-0.03364 0.6523384,-0.07422 0.1970304,-0.04264 0.5309329,-0.163798 0.7421819,-0.273436 0.339217,-0.176618 0.606865,-0.420884 2.296857,-2.093733 1.744836,-1.725632 1.932484,-1.894077 2.164045,-1.957016 0.166563,-0.04478 0.416089,-0.06116 0.718744,-0.04296 0.255937,0.0162 0.690461,0.09082 0.968743,0.167959 0.276247,0.07512 0.82468,0.224564 1.21874,0.328123 0.609373,0.160499 0.782962,0.186159 1.144522,0.167959 0.251875,-0.0142 0.497643,-0.05846 0.60937,-0.113279 0.107657,-0.05278 5.653524,-5.56526 13.288957,-13.210833 l 13.105364,-13.12099 z m 0.02734,2.730448 3.414037,3.410129 3.410128,3.410129 -11.800688,11.792874 -11.804593,11.792876 -0.312498,0.08984 c -0.22953,0.06486 -0.415777,0.07904 -0.675775,0.05468 -0.197031,-0.0182 -0.877802,-0.165558 -1.515614,-0.332027 -1.0339,-0.267986 -1.221082,-0.300486 -1.718736,-0.304686 -0.477341,-0.004 -0.586712,0.0098 -0.769525,0.109379 -0.115781,0.06294 -1.279204,1.186007 -2.601542,2.511701 -1.314212,1.317573 -2.4484194,2.426264 -2.5195109,2.464824 -0.073125,0.03856 -0.2187468,0.08146 -0.32031,0.09766 -0.1035932,0.0142 -0.2657791,0.0068 -0.3632783,-0.0156 -0.099531,-0.02438 -0.2431227,-0.08768 -0.3203101,-0.144539 -0.077187,-0.05684 -0.1929685,-0.178198 -0.2539042,-0.269529 -0.062969,-0.09136 -0.1301569,-0.25004 -0.1484368,-0.35156 -0.020316,-0.103539 -0.00516,-0.290219 0.027344,-0.414058 0.052812,-0.200985 0.3481156,-0.516932 2.5195113,-2.695293 1.35281,-1.356157 2.499826,-2.54878 2.554671,-2.652339 0.07928,-0.150233 0.09779,-0.291484 0.09375,-0.74218 -0.0041,-0.414151 -0.03907,-0.686914 -0.140623,-1.062491 -0.07516,-0.276102 -0.215151,-0.7894 -0.308592,-1.140617 -0.134065,-0.50145 -0.17174,-0.749746 -0.17578,-1.167959 -0.0041,-0.452725 0.01188,-0.561504 0.109374,-0.742182 0.06906,-0.125859 4.942593,-5.036132 11.867093,-11.956937 z"/>
 <path style="fill:#3f3f3f" d="m 50.103313,27.993242 c -1.214918,0.110519 -1.874409,-1.109947 -2.690462,-1.788862 -3.733696,-3.721646 -7.482987,-7.429436 -11.144592,-11.22216 -0.788923,-1.229055 0.27711,-2.992095 1.717583,-2.921235 1.005346,0.132087 1.646815,1.040625 2.352767,1.694262 0.144039,0.156263 0.232388,0.21824 0.232388,0.21824 0,0 0.392201,-0.442776 0.571282,-0.55764 2.078553,-2.044984 4.087607,-4.1652347 6.252044,-6.1193143 2.410081,-1.8312177 6.066044,-1.7216531 8.31454,0.3266542 2.257446,1.8762555 2.943158,5.3190321 1.623461,7.9333001 -0.78904,1.61388 -2.288456,2.703185 -3.4645,4.015333 -1.282354,1.290775 -2.568482,2.577785 -3.852546,3.866856 0.772636,0.858074 1.980172,1.590744 1.928821,2.880459 -0.183519,0.863724 -0.915715,1.657867 -1.840786,1.674107 z"/>
 <path style="fill:#e4e4e4" d="m 8.8561671,57.99996 c -0.1604687,0 -0.4671856,-0.04666 -0.6804655,-0.10354 C 7.9624215,57.841601 7.663829,57.729942 7.5135174,57.648742 7.3611746,57.567543 7.066644,57.334067 6.8594578,57.129022 6.6522715,56.923978 6.4288348,56.649908 6.361804,56.519977 6.2947725,56.390058 6.1972733,56.15252 6.1403983,55.994166 6.0855568,55.833787 6.0266492,55.543469 6.0083674,55.350607 c -0.01828,-0.196939 -0.00406,-0.517694 0.0325,-0.736947 0.040628,-0.245652 0.1462489,-0.548145 0.2823426,-0.820187 0.2031242,-0.410091 0.3189047,-0.537988 2.1084274,-2.344827 1.7285856,-1.743906 1.8992096,-1.932711 1.9642096,-2.164151 0.04469,-0.164439 0.05891,-0.412121 0.03859,-0.716644 -0.01422,-0.25377 -0.0914,-0.688223 -0.16656,-0.966357 -0.07516,-0.278132 -0.223436,-0.826273 -0.3270296,-1.220122 -0.1624987,-0.611079 -0.1868745,-0.77958 -0.1685926,-1.140949 0.01422,-0.263922 0.056874,-0.495358 0.115781,-0.611077 0.052814,-0.101519 5.9657512,-6.05596 13.2050932,-13.2955 L 36.204788,18.225121 45.763806,27.77904 32.660274,40.899946 c -7.635433,7.645573 -13.180719,13.157451 -13.288376,13.210234 -0.111727,0.05482 -0.359529,0.0995 -0.611403,0.11368 -0.361561,0.0182 -0.532184,-0.008 -1.141558,-0.168499 -0.39406,-0.103559 -0.944526,-0.251736 -1.220773,-0.326859 -0.278282,-0.07714 -0.712967,-0.152259 -0.968903,-0.168499 -0.302655,-0.0182 -0.550466,-0.0042 -0.717028,0.04058 -0.231561,0.06294 -0.420466,0.23347 -2.165302,1.959102 -1.689992,1.672849 -1.956084,1.914441 -2.295301,2.091061 -0.211249,0.109639 -0.5464038,0.23347 -0.743434,0.276104 -0.1970305,0.04058 -0.4915607,0.07512 -0.6520283,0.07308 z m 0.1604668,-1.944887 c 0.1015632,-0.0162 0.2457806,-0.05888 0.3189052,-0.09744 0.071091,-0.03856 1.2065569,-1.147037 2.5207689,-2.464611 1.322338,-1.325693 2.486238,-2.44837 2.602019,-2.511304 0.182813,-0.09948 0.292499,-0.115719 0.769841,-0.111659 0.497654,0.0042 0.682496,0.03654 1.716397,0.304526 0.637811,0.166479 1.320308,0.316705 1.517337,0.334975 0.259998,0.02436 0.444842,0.008 0.674373,-0.05686 L 19.451117,51.363382 31.252625,39.5702 43.054131,27.779048 39.643681,24.368383 36.231196,20.957718 24.478437,32.700147 C 17.553938,39.620952 12.678961,44.529875 12.6099,44.655744 c -0.0975,0.180678 -0.11375,0.290313 -0.10969,0.743038 0.004,0.418212 0.04265,0.66589 0.176719,1.16734 0.09344,0.351218 0.231563,0.864848 0.306718,1.140949 0.101557,0.375577 0.138131,0.647621 0.142191,1.061772 0.004,0.450696 -0.01416,0.592805 -0.09344,0.743038 -0.05485,0.103559 -1.204526,1.297272 -2.557332,2.653413 -2.1713959,2.178361 -2.4659261,2.495064 -2.5187383,2.696049 -0.0325,0.123839 -0.044688,0.308585 -0.024372,0.412122 0.01828,0.101519 0.085311,0.259862 0.1482808,0.351217 0.060936,0.09134 0.1746866,0.213169 0.2518738,0.270012 0.077187,0.05686 0.2193739,0.121799 0.3189051,0.146179 0.097499,0.02234 0.2620299,0.02842 0.3656227,0.0142 z m 0,0"/>
 <path style="fill:#ffffff;opacity:0.1" d="M 51.611328 6.0058594 C 50.115015 5.951332 48.599572 6.3812662 47.394531 7.296875 C 45.230094 9.2509546 43.221131 11.371032 41.142578 13.416016 C 40.963497 13.53088 40.570312 13.972656 40.570312 13.972656 C 40.570313 13.972656 40.48193 13.912122 40.337891 13.755859 C 39.631939 13.102222 38.991674 12.192634 37.986328 12.060547 C 36.707991 11.997663 35.728026 13.378057 36.074219 14.548828 C 36.304224 13.716385 37.067624 13.015354 37.986328 13.060547 C 38.991674 13.192634 39.631939 14.102222 40.337891 14.755859 C 40.48193 14.912122 40.570313 14.972656 40.570312 14.972656 C 40.570312 14.972656 40.963497 14.53088 41.142578 14.416016 C 43.221131 12.371032 45.230094 10.250954 47.394531 8.296875 C 49.804612 6.4656573 53.460488 6.5747396 55.708984 8.6230469 C 57.065073 9.7501475 57.848844 11.443129 57.976562 13.181641 C 58.130433 11.111654 57.324927 8.9661228 55.708984 7.6230469 C 54.584736 6.5988932 53.107641 6.0603867 51.611328 6.0058594 z M 50.513672 23.939453 C 50.347868 24.105791 50.181373 24.271106 50.015625 24.4375 C 50.641463 25.132543 51.551297 25.747453 51.847656 26.640625 C 51.887474 26.535449 51.920242 26.427159 51.943359 26.318359 C 51.984546 25.28394 51.218229 24.609301 50.513672 23.939453 z"/>
</svg>
